icons/linear-new-textedit-office-line-height.svg

<svg xmlns="http://www.w3.org/2000/svg" width="32px" height="32px" viewBox="0 0 32 32" version="1.1">
    <title>linear-new-textedit-office-line-height</title>
    <g id="linear-new-textedit-office-line-height" stroke-width="1" fill-rule="evenodd">
        <path d="M28,5 C28.5522847,5 29,5.44771525 29,6 C29,6.55228475 28.5522847,7 28,7 L15,7 C14.4477153,7 14,6.55228475 14,6 C14,5.44771525 14.4477153,5 15,5 L28,5 Z M22,12 C22.5522847,12 23,12.4477153 23,13 C23,13.5522847 22.5522847,14 22,14 L15,14 C14.4477153,14 14,13.5522847 14,13 C14,12.4477153 14.4477153,12 15,12 L22,12 Z M28,19 C28.5522847,19 29,19.4477153 29,20 C29,20.5522847 28.5522847,21 28,21 L15,21 C14.4477153,21 14,20.5522847 14,20 C14,19.4477153 14.4477153,19 15,19 L28,19 Z M22,26 C22.5522847,26 23,26.4477153 23,27 C23,27.5522847 22.5522847,28 22,28 L15,28 C14.4477153,28 14,27.5522847 14,27 C14,26.4477153 14.4477153,26 15,26 L22,26 Z M6.85153313,3.0110178 L6.90996805,3.00399798 L7,3 L7.07523854,3.00278786 L7.20072576,3.02024007 L7.31214252,3.04973809 L7.42322155,3.09367336 L7.52070875,3.14599545 L7.62544899,3.21968877 L7.70710678,3.29289322 L10.7071068,6.29289322 C11.0976311,6.68341751 11.0976311,7.31658249 10.7071068,7.70710678 C10.3165825,8.09763107 9.68341751,8.09763107 9.29289322,7.70710678 L8,6.415 L8,25.584 L9.29289322,24.2928932 C9.65337718,23.9324093 10.2206082,23.9046797 10.6128994,24.2097046 L10.7071068,24.2928932 C11.0976311,24.6834175 11.0976311,25.3165825 10.7071068,25.7071068 L7.70710678,28.7071068 C7.67171273,28.7425008 7.63432558,28.774687 7.59530661,28.8036654 L7.4840621,28.8753288 L7.37133602,28.9287745 L7.26599297,28.9641549 L7.11747418,28.9931658 L7,29 L6.92476146,28.9972121 L6.79927424,28.9797599 L6.68785748,28.9502619 L6.57677845,28.9063266 L6.47929125,28.8540045 L6.38297765,28.7870723 L6.29289322,28.7071068 L3.29289322,25.7071068 C2.90236893,25.3165825 2.90236893,24.6834175 3.29289322,24.2928932 C3.68341751,23.9023689 4.31658249,23.9023689 4.70710678,24.2928932 L6,25.586 L6,6.415 L4.70710678,7.70710678 C4.34662282,8.06759074 3.77939176,8.09532028 3.38710056,7.79029539 L3.29289322,7.70710678 C2.90236893,7.31658249 2.90236893,6.68341751 3.29289322,6.29289322 L6.29289322,3.29289322 C6.32828727,3.25749917 6.36567442,3.22531295 6.40469339,3.19633458 L6.5159379,3.12467117 L6.62866398,3.07122549 L6.73400703,3.03584514 L6.85153313,3.0110178 Z" id="&#24418;&#29366;" fill-rule="nonzero" />
    </g>
</svg>

<svg xmlns="http://www.w3.org/2000/svg" viewBox="0 0 32 32"><path fill="currentColor" d="M28 5a1 1 0 0 1 0 2H15a1 1 0 0 1 0-2zm-6 7a1 1 0 0 1 0 2h-7a1 1 0 0 1 0-2zm6 7a1 1 0 0 1 0 2H15a1 1 0 0 1 0-2zm-6 7a1 1 0 0 1 0 2h-7a1 1 0 0 1 0-2zM6.852 3.011l.058-.007L7 3l.075.003.126.017.111.03.111.044.098.052.104.074.082.073 3 3a1 1 0 1 1-1.414 1.414L8 6.415v19.169l1.293-1.291a1 1 0 0 1 1.32-.083l.094.083a1 1 0 0 1 0 1.414l-3 3a1.008 1.008 0 0 1-.112.097l-.11.071-.114.054-.105.035-.149.03L7 29l-.075-.003-.126-.017-.111-.03-.111-.044-.098-.052-.096-.067-.09-.08-3-3a1 1 0 0 1 1.414-1.414L6 25.586V6.415L4.707 7.707a1 1 0 0 1-1.32.083l-.094-.083a1 1 0 0 1 0-1.414l3-3c.035-.036.073-.068.112-.097l.11-.071.114-.054.105-.035z"/></svg>
